static/images/skills/opengl.svg

<svg xmlns="http://www.w3.org/2000/svg" xml:space="preserve" style="fill-rule:evenodd;clip-rule:evenodd;stroke-linejoin:round;stroke-miterlimit:2" viewBox="0 0 1200 900"><path d="M0 0h1200v900H0z" style="fill:#2c4a5a"/><path d="M26.289 75.031c-6.137 0-9.203-3.645-10.387-7.453 1.336 6.191 8.555 12.23 31.27 14.91 21.473 2.543 35.465-3.848 40.199-6.828 0 0 3.191-1.363 1.277.746 0 0-13.508 12.129-40.094 12.285C22.02 88.816.926 75.828 1.086 62.648.957 49.523 22.02 36.504 48.555 36.609c26.531.125 40.094 12.281 40.094 12.281 1.914 2.105-1.277.75-1.277.75-4.719-2.969-18.676-8.82-40.199-6.828-21.207 1.984-28.094 8.98-30.41 13.652a13.4 13.4 0 0 0-1.383 5.242c.57-4.496 3.449-9.77 10.871-9.77 8.398 0 10.98 6.828 10.98 11.551s-2.574 11.5-10.98 11.5zm85.57-4.543h11.195v3.965h-15.93V52.555h4.707v17.91zm-17.277-7.824H104v11.813h-3.137l-.469-2.738c-1.195 1.34-2.926 3.324-7.051 3.324-5.437 0-10.387-3.777-10.387-11.445 0-5.984 3.422-11.605 11.031-11.605 6.891 0 9.633 4.359 9.902 7.352h-4.707c0-.852-1.605-3.598-4.93-3.598-3.359 0-6.461 2.258-6.461 7.875 0 5.988 3.359 7.512 6.566 7.512 1.035 0 4.488-.395 5.438-4.816h-5.242v-3.687zm-68.348-8.031c-4.898 0-7.855 3.746-7.855 8.926 0 5.148 2.949 8.926 7.855 8.926 4.898 0 7.859-3.75 7.859-8.926 0-5.152-2.949-8.926-7.859-8.926m12.703 5.828h2.285v1.98h.055c.582-.805 1.68-2.387 4.301-2.387 3.832 0 6.566 3.152 6.566 7.09 0 3.344-1.988 7.719-6.891 7.719-1.93 0-3.195-.883-3.832-1.875h-.055v7.035H38.94V60.488zm6.133 12.395c2.648 0 4.441-2.23 4.441-5.305 0-1.801-.75-5.359-4.496-5.359-3.496 0-3.883 3.668-3.883 5.938 0 3.715 2.398 4.711 3.938 4.711zm21.742-2.762c-.082.672-.742 2.652-2.562 3.828-.66.43-1.598.969-3.91.969-4.055 0-6.457-2.973-6.457-7.039 0-4.336 2.152-7.77 6.941-7.77 4.16 0 6.188 3.215 6.188 8.191H56.465c0 2.922 1.402 4.602 4.191 4.602 2.289 0 3.637-1.707 3.719-2.754h2.43zm-2.57-3.715c-.141-2.172-1.078-4.176-4.027-4.176-2.234 0-4 2.004-4 4.176zm16.145 8.082h-2.426v-8.609c0-2.434-.719-3.664-3.09-3.664-1.379 0-3.805.855-3.805 4.656v7.613h-2.43V60.441h2.289v1.977h.055c.523-.75 1.871-2.383 4.355-2.383 2.23 0 5.043.883 5.043 4.875v9.504m47.376-.695a1.95 1.95 0 0 1-.277 1.012c-.18.312-.442.569-.758.742a2.083 2.083 0 0 1-2.066 0 2 2 0 0 1-.758-.742 1.95 1.95 0 0 1-.277-1.012 2 2 0 0 1 1.035-1.754 2.07 2.07 0 0 1 1.031-.27c.367 0 .719.09 1.035.27s.574.426.758.738c.182.307.278.659.277 1.016m-.398 0a1.53 1.53 0 0 0-.492-1.152 1.6 1.6 0 0 0-1.176-.484c-.457 0-.855.16-1.18.484a1.54 1.54 0 0 0-.488 1.152c-.008.437.17.857.488 1.156a1.62 1.62 0 0 0 1.18.477c.461 0 .852-.156 1.176-.477.318-.3.496-.719.492-1.156m-2.605-1.086h.988c.277 0 .484.059.609.168a.57.57 0 0 1 .188.445q.001.216-.145.379-.142.154-.453.23a.6.6 0 0 1 .188.098q.105.098.176.223.182.311.359.625h-.652l-.426-.738c-.07-.082-.145-.125-.215-.125-.02 0-.039.004-.07.008v.855h-.551zm.551.922h.238q.235 0 .336-.078a.24.24 0 0 0 .098-.195.23.23 0 0 0-.094-.191q-.093-.077-.32-.078h-.258z" style="fill:#5586a4" transform="translate(294.86 153.242)scale(4.73676)"/></svg>

<?xml version="1.0" encoding="UTF-8" standalone="no"?>
<!DOCTYPE svg PUBLIC "-//W3C//DTD SVG 1.1//EN" "http://www.w3.org/Graphics/SVG/1.1/DTD/svg11.dtd">
<svg width="100%" height="100%" viewBox="0 0 1200 900" version="1.1" xmlns="http://www.w3.org/2000/svg" xmlns:xlink="http://www.w3.org/1999/xlink" xml:space="preserve" xmlns:serif="http://www.serif.com/" style="fill-rule:evenodd;clip-rule:evenodd;stroke-linejoin:round;stroke-miterlimit:2;">
    <rect x="0" y="0" width="1200" height="900" style="fill:rgb(44,74,90);"/>
    <g transform="matrix(4.73676,0,0,4.73676,294.86,153.242)">
        <path d="M26.289,75.031C20.152,75.031 17.086,71.386 15.902,67.578C17.238,73.769 24.457,79.808 47.172,82.488C68.645,85.031 82.637,78.64 87.371,75.66C87.371,75.66 90.562,74.297 88.648,76.406C88.648,76.406 75.14,88.535 48.554,88.691C22.02,88.816 0.926,75.828 1.086,62.648C0.957,49.523 22.02,36.504 48.555,36.609C75.086,36.734 88.649,48.89 88.649,48.89C90.563,50.995 87.372,49.64 87.372,49.64C82.653,46.671 68.696,40.82 47.173,42.812C25.966,44.796 19.079,51.792 16.763,56.464C15.951,58.099 15.48,59.883 15.38,61.706C15.95,57.21 18.829,51.936 26.251,51.936C34.649,51.936 37.231,58.764 37.231,63.487C37.231,68.21 34.657,74.987 26.251,74.987L26.289,75.031ZM111.859,70.488L123.054,70.488L123.054,74.453L107.124,74.453L107.124,52.555L111.831,52.555L111.831,70.465L111.859,70.488ZM94.582,62.664L104,62.664L104,74.477L100.863,74.477L100.394,71.739C99.199,73.079 97.468,75.063 93.343,75.063C87.906,75.063 82.956,71.286 82.956,63.618C82.956,57.634 86.378,52.013 93.987,52.013C100.878,52.013 103.62,56.372 103.889,59.365L99.182,59.365C99.182,58.513 97.577,55.767 94.252,55.767C90.893,55.767 87.791,58.025 87.791,63.642C87.791,69.63 91.15,71.154 94.357,71.154C95.392,71.154 98.845,70.759 99.795,66.338L94.553,66.338L94.553,62.651L94.582,62.664ZM26.234,54.633C21.336,54.633 18.379,58.379 18.379,63.559C18.379,68.707 21.328,72.485 26.234,72.485C31.132,72.485 34.093,68.735 34.093,63.559C34.093,58.407 31.144,54.633 26.234,54.633ZM38.937,60.461L41.222,60.461L41.222,62.441L41.277,62.441C41.859,61.636 42.957,60.054 45.578,60.054C49.41,60.054 52.144,63.206 52.144,67.144C52.144,70.488 50.156,74.863 45.253,74.863C43.323,74.863 42.058,73.98 41.421,72.988L41.366,72.988L41.366,80.023L38.94,80.023L38.94,60.488L38.937,60.461ZM45.07,72.856C47.718,72.856 49.511,70.626 49.511,67.551C49.511,65.75 48.761,62.192 45.015,62.192C41.519,62.192 41.132,65.86 41.132,68.13C41.132,71.845 43.53,72.841 45.07,72.841L45.07,72.856ZM66.812,70.094C66.73,70.766 66.07,72.746 64.25,73.922C63.59,74.352 62.652,74.891 60.34,74.891C56.285,74.891 53.883,71.918 53.883,67.852C53.883,63.516 56.035,60.082 60.824,60.082C64.984,60.082 67.012,63.297 67.012,68.273L56.465,68.273C56.465,71.195 57.867,72.875 60.656,72.875C62.945,72.875 64.293,71.168 64.375,70.121L66.805,70.121L66.812,70.094ZM64.242,66.379C64.101,64.207 63.164,62.203 60.215,62.203C57.981,62.203 56.215,64.207 56.215,66.379L64.242,66.379ZM80.387,74.461L77.961,74.461L77.961,65.852C77.961,63.418 77.242,62.188 74.871,62.188C73.492,62.188 71.066,63.043 71.066,66.844L71.066,74.457L68.636,74.457L68.636,60.441L70.925,60.441L70.925,62.418L70.98,62.418C71.503,61.668 72.851,60.035 75.335,60.035C77.565,60.035 80.378,60.918 80.378,64.91L80.378,74.414M127.754,73.719C127.756,74.075 127.66,74.425 127.477,74.731C127.297,75.043 127.035,75.3 126.719,75.473C126.404,75.653 126.047,75.747 125.684,75.746C125.317,75.746 124.973,75.652 124.653,75.473C124.333,75.294 124.083,75.047 123.895,74.731C123.712,74.425 123.616,74.075 123.618,73.719C123.618,73.36 123.712,73.02 123.895,72.703C124.078,72.394 124.339,72.139 124.653,71.965C124.967,71.787 125.323,71.693 125.684,71.695C126.051,71.695 126.403,71.785 126.719,71.965C127.035,72.145 127.293,72.391 127.477,72.703C127.659,73.01 127.755,73.362 127.754,73.719ZM127.356,73.719C127.364,73.283 127.185,72.863 126.864,72.567C126.54,72.243 126.145,72.083 125.688,72.083C125.231,72.083 124.833,72.243 124.508,72.567C124.19,72.865 124.012,73.283 124.02,73.719C124.012,74.156 124.19,74.576 124.508,74.875C124.82,75.188 125.246,75.361 125.688,75.352C126.149,75.352 126.54,75.196 126.864,74.875C127.182,74.575 127.36,74.156 127.356,73.719ZM124.751,72.633L125.739,72.633C126.016,72.633 126.223,72.692 126.348,72.801C126.473,72.91 126.536,73.063 126.536,73.246C126.536,73.391 126.489,73.516 126.391,73.625C126.297,73.727 126.145,73.805 125.938,73.855C126.006,73.876 126.07,73.909 126.126,73.953C126.196,74.018 126.255,74.093 126.302,74.176C126.423,74.383 126.543,74.592 126.661,74.801L126.009,74.801L125.583,74.063C125.513,73.981 125.438,73.938 125.368,73.938C125.348,73.938 125.329,73.942 125.298,73.946L125.298,74.801L124.747,74.801L124.751,72.633ZM125.302,73.555L125.54,73.555C125.696,73.555 125.81,73.528 125.876,73.477C125.938,73.432 125.974,73.359 125.974,73.282C125.976,73.207 125.941,73.135 125.88,73.091C125.818,73.04 125.712,73.013 125.56,73.013L125.302,73.013L125.302,73.555Z" style="fill:rgb(85,134,164);"/>
    </g>
</svg>
